X:1
T:Huntly Lodge. a Strathspey
T:Huntly Lodge. a Strathspey
T:William Marshall
C:William Marshall
%%score { 1 2 }
L:1/8
M:4/4
K:Bb
V:1 treble 
V:2 bass 
V:1
"^Slow when not danced" F2 | [DFB]<[DFB] [DFB]2{AB} c>A BF | [FAc]<[FAc] ([Fc]>d) (e>c) dB | %3
 (df) (eg) (ce) (df) | G>c c>d (e/d/)c/B/ .A.F | [DFB]<[DFB] [DFB]2{AB} c>A BF | %6
 [FAc]<[FAc] (c>d) (e>cd)B | .d.f.e.g .c.e.d.f | TF>B A/B/c/A/ [DFB]2 [DFB] ||{ABcdefg} a | %10
 (b/a/)g/f/ (g/f/)e/d/ eEEe | (g/f/)e/d/ (f/e/)d/c/ dB,B,d | eCCe dB,B,d | %13
 TG>c (e/d/)c/B/ [F-B][FA](GF) | (Bf)dB (Eg)ec | d<bf>d (Tc/B/)A/G/ .FE | DFDF EGEG | %17
 TF>B (A/B/)c/A/ [DFB]2 [DFB] |] %18
V:2
 z2 | B2 B2 f2 B2 | f2 f2 a2 b2 | B2 e2 f2 B2 | e2 c2 f2 F2 | B2 b2 [fa]2 b2 | f2 f2 a2 b2 | %7
 B2 e2 f2 B2 | f2 F2 B2 B || z | [Bb]2 [Bb]2 [Ee]2 [Ee]2 | [Ff]2 [Ff]2 [B,B]2 [B,B]2 | %12
 [Cc]2 [Cc]2 [Dd]2 [Dd]2 | e2 c2 f2 F2 | B2 d2 e2 c2 | d2 B2 f2 F2 | B2 d2 e2 E2 | F2 f2 B2 B |] %18

